X:1
T:Hear Him Pleading
T:Hear Him Pleading
T:John W. Woolard
T:Newton Washington Allphin, 1918
T:Public Domain Courtesy of the Cyber Hymnal™
T:Public Domain Courtesy of the Cyber Hymnal™
C:John W. Woolard
Z:Public Domain
Z:Courtesy of the Cyber Hymnal™
%%score ( 1 2 ) ( 3 4 )
L:1/8
Q:1/4=95
M:4/4
K:A
V:1 treble 
V:2 treble 
V:3 bass 
V:4 bass 
V:1
 AB | c4- [Ec][CA][DB][Ec] | [DB] A4- [FA]cc | B4- [=DB][CA][^DB]c | B6 cc | A4- [EA][CE][DF][CA] | %6
w: 1.~Wea- ry|soul, bowed down in sor-|* row, Turn to Christ,|* the Lord, to- day;|* Say not|in thine heart, “to- mor-|
w: 2.~With the|Sav- ior’s prom- ised bless-|* ing, Wealth of earth|* can not com- pare;|* Come at|once, His name con- fess-|
w: 3.~He will|give you life e- ter-|* nal, Plea- sures too,|* that ne’er de- cay,|* In a|land of joy su- per-|
w: 4.~Cease your|wan- dering, now so drea-|* ry, Seek for sweet|* and peace- ful rest;|* Hun- gry,|thirst- y, or a- wea-|
 [DF] E4- [CE]AB | c4- [Fc][CA][DB][=Ec] | A6 ||"^Refrain" AB | e4- [Ae][EA][DB][Ec] | %11
w: * row,” But be- lieve|* now while you may.||||
w: * ing, That His glo-|* ry you may share.||Hear Him|plead- ing, gent- ly plead-|
w: * nal, If you will|* His Word o- bey.||||
w: * ry, Come and be|* for- ev- er blest.||||
 [DB] A4- [CA]cc | c4- [Fc][=EA][^DB][Dc] | B6 E2 Ac | e4- [Ae][CA][DB][Ec] | [Ed] A4- [CA]cA | %16
w: |||||
w: * ing, Come to Him|* with- out de- lay;|* For your soul|* He’s in- ter- ced-|* ing; Come, His bless-|
w: |||||
w: |||||
 F4- [DF][DG][CB][Ec] | A6 C2 |] %18
w: ||
w: * èd Word o- bey.||
w: ||
w: ||
V:2
 x2 | E2 E2 x4 | x C F F F x3 | ^D2 D2 x4 | (E2 E^D E2) x2 | E2 E2 x4 | x C C C C x3 | E2 ^E2 x4 | %8
 (C2 DD C2) || x2 | A2 G2 x4 | x C C C C x3 | E2 ^E2 x4 | E2 E^D x6 | A2 G2 x4 | x C C C C x3 | %16
 D2 D2 x4 | CCED x4 |] %18
V:3
 z2 | A,2 A,2 A,A,[E,G,][E,G,] | [F,A,] ([F,A,][C,C][C,C][F,C][F,C]) z2 | %3
w: |~ ~ ~ ~ ~ ~|~ ~ * * * *|
 ([E,G,]2 [E,G,]2 [E,G,])[F,A,][B,,F,][B,,A,] | ([E,G,]2 [G,B,][F,A,] [E,G,]2) z2 | %5
w: ~ * * ~ ~ ~|~ * * *|
 ([A,C]2 [A,C]2 [A,C])A,[A,,A,][A,,E,] | [A,,A,] ([A,,A,] [C,A,] [E,A,] A,)A, z2 | %7
w: ~ * * ~ ~ ~|~ ~ * * * ~|
 A,2 ([G,B,]2 [F,A,])[F,A,][E,G,][E,G,] | A,2 F,F, E,2 || z2 | ([A,C]2 [E,B,]2 [A,C])[A,C]A,A, | %11
w: ~ ~ * ~ ~ ~|||~ * * ~ ~ gent-|
 [A,,E,][A,,E,][C,A,][^E,A,] [F,A,][F,A,] z2 | A,2 ([G,B,]2 [F,A,])[C,A,][B,,F,][B,,A,] | %13
w: ly plead- ing ~ ~ ~|~ ~ * don’t de- lay|
 [E,G,]2 [G,B,][F,A,] [E,G,]2 z2 x2 | ([A,C]2 [E,B,]2 [A,C])A,A,A, | %15
w: * ~ ~ ~|~ * * ~ ~ in-|
 [A,,E,][A,,E,][C,A,][E,A,] A,A, z2 | [D,A,]2 [D,A,]2 [D,A,][C,A,][E,G,][E,G,] | A,A,G,F, E,2 x2 |] %18
w: ter- ced- ing, ~ ~ ~|~ ~ ~ ~ His Word|o- bey * * *|
V:4
 x2 | (A,2 A,2 A,)A, x2 | x8 | x8 | x8 | x5 A, x2 | x4 (A,A,) x2 | A,2 x6 | A,,6 || x2 | x6 A,A, | %11
 x8 | A,2 x6 | x10 | x5 A,A,A, | x4 A,A, x2 | x8 | A,,6 x2 |] %18

